docs/images/icons/viber.svg

<svg width="20" height="20" viewBox="0 0 20 20" fill="none" xmlns="http://www.w3.org/2000/svg">
<path fill-rule="evenodd" clip-rule="evenodd" d="M14.2228 2.41757C11.732 1.86081 9.14912 1.86081 6.65839 2.41757L6.39002 2.47695C5.68941 2.63359 5.04593 2.98138 4.53108 3.4817C4.01623 3.98202 3.65015 4.61527 3.47352 5.31111C2.84216 7.79895 2.84216 10.4051 3.47352 12.8929C3.64196 13.5565 3.98288 14.1638 4.4617 14.6532C4.94052 15.1426 5.54023 15.4967 6.20002 15.6796L6.56814 17.8772C6.57989 17.947 6.61014 18.0124 6.65573 18.0665C6.70132 18.1206 6.76058 18.1616 6.82735 18.185C6.89413 18.2084 6.96596 18.2135 7.03538 18.1998C7.1048 18.1861 7.16926 18.1539 7.22206 18.1068L9.3841 16.1728C11.0071 16.2718 12.6359 16.142 14.2228 15.7872L14.4919 15.7279C15.1925 15.5712 15.836 15.2234 16.3509 14.7231C16.8657 14.2228 17.2318 13.5895 17.4084 12.8937C18.0397 10.4059 18.0397 7.79975 17.4084 5.31191C17.2317 4.61596 16.8655 3.98264 16.3505 3.48232C15.8355 2.98199 15.1919 2.63425 14.4911 2.47774L14.2228 2.41757ZM7.32656 5.24699C7.17943 5.22557 7.02939 5.25519 6.90143 5.33091H6.89035C6.59348 5.50507 6.32589 5.72436 6.09789 5.98245C5.90789 6.20174 5.80498 6.42341 5.77806 6.63716C5.76223 6.76382 5.77331 6.89207 5.81052 7.0132L5.82477 7.02111C6.03852 7.64891 6.31718 8.25295 6.6576 8.82136C7.09654 9.61975 7.6367 10.3581 8.26468 11.0182L8.28368 11.0452L8.31377 11.0673L8.33198 11.0887L8.35414 11.1077C9.01655 11.7376 9.75667 12.2803 10.5566 12.7227C11.4709 13.2207 12.0259 13.4558 12.3592 13.5539V13.5587C12.4566 13.5888 12.5452 13.6022 12.6347 13.6022C12.9185 13.5813 13.1872 13.4659 13.3979 13.2745C13.6551 13.0465 13.8728 12.7781 14.0423 12.4797V12.4741C14.2014 12.1733 14.1476 11.8899 13.918 11.6975C13.4568 11.2946 12.9582 10.9367 12.4289 10.6287C12.0742 10.4364 11.714 10.5527 11.5683 10.7475L11.2572 11.1402C11.0973 11.3349 10.8075 11.308 10.8075 11.308L10.7996 11.3127C8.63756 10.7609 8.06043 8.57199 8.06043 8.57199C8.06043 8.57199 8.03352 8.27432 8.23381 8.12232L8.62331 7.80882C8.81014 7.65682 8.93998 7.29741 8.73968 6.94274C8.43379 6.41293 8.07662 5.91442 7.67331 5.45441C7.58535 5.34614 7.46199 5.27241 7.32498 5.2462L7.32656 5.24699ZM10.9793 4.29541C10.8743 4.29541 10.7736 4.33711 10.6994 4.41134C10.6252 4.48558 10.5835 4.58626 10.5835 4.69124C10.5835 4.79622 10.6252 4.8969 10.6994 4.97114C10.7736 5.04537 10.8743 5.08707 10.9793 5.08707C11.9808 5.08707 12.812 5.41403 13.4699 6.04103C13.8079 6.38382 14.0716 6.78995 14.2441 7.23486C14.4175 7.68057 14.4967 8.15636 14.4761 8.63295C14.4739 8.68493 14.482 8.73683 14.4999 8.78569C14.5177 8.83455 14.5451 8.87941 14.5803 8.91771C14.6514 8.99506 14.7503 9.041 14.8553 9.0454C14.9603 9.04981 15.0627 9.01234 15.1401 8.94122C15.2174 8.87011 15.2634 8.77118 15.2678 8.6662C15.2923 8.07996 15.195 7.495 14.982 6.94828C14.768 6.39897 14.4436 5.89942 14.0288 5.48053L14.0209 5.47261C13.2047 4.69282 12.1716 4.29541 10.9793 4.29541ZM10.9524 5.59691C10.8474 5.59691 10.7467 5.63861 10.6725 5.71284C10.5983 5.78708 10.5566 5.88776 10.5566 5.99274C10.5566 6.09772 10.5983 6.1984 10.6725 6.27263C10.7467 6.34687 10.8474 6.38857 10.9524 6.38857H10.9659C11.6878 6.44003 12.2135 6.6807 12.5816 7.07574C12.9593 7.48266 13.1548 7.98853 13.1398 8.61395C13.1374 8.71893 13.1767 8.82057 13.2493 8.89651C13.3218 8.97245 13.4215 9.01647 13.5265 9.01888C13.6315 9.0213 13.7331 8.98191 13.8091 8.90939C13.885 8.83686 13.929 8.73714 13.9314 8.63215C13.9504 7.8112 13.686 7.10266 13.1619 6.53741V6.53582C12.626 5.96107 11.8905 5.65707 11.0054 5.5977L10.992 5.59611L10.9524 5.59691ZM10.9373 6.92295C10.8844 6.91827 10.831 6.92432 10.7804 6.94073C10.7298 6.95714 10.6831 6.98357 10.6429 7.01845C10.6028 7.05333 10.5701 7.09594 10.5468 7.14374C10.5235 7.19154 10.51 7.24354 10.5073 7.29665C10.5045 7.34976 10.5125 7.40288 10.5307 7.45284C10.5489 7.5028 10.577 7.54858 10.6133 7.58745C10.6496 7.62631 10.6933 7.65746 10.742 7.67904C10.7906 7.70061 10.843 7.71217 10.8962 7.71303C11.2271 7.73045 11.4385 7.8302 11.5715 7.96399C11.7053 8.09857 11.805 8.3147 11.8232 8.65274C11.8242 8.70586 11.8359 8.75824 11.8575 8.80675C11.8792 8.85526 11.9104 8.89892 11.9493 8.93512C11.9882 8.97132 12.034 8.99932 12.0839 9.01745C12.1338 9.03558 12.1869 9.04347 12.24 9.04065C12.293 9.03784 12.345 9.02437 12.3927 9.00105C12.4405 8.97773 12.483 8.94504 12.5179 8.90493C12.5527 8.86481 12.5791 8.8181 12.5955 8.76756C12.6119 8.71703 12.618 8.66371 12.6133 8.61078C12.588 8.13578 12.4391 7.7162 12.1343 7.40745C11.828 7.0987 11.4108 6.94828 10.9373 6.92295Z" fill="#BDBDC0"/>
</svg>

<svg width="20" height="20" fill="none" xmlns="http://www.w3.org/2000/svg"><path fill-rule="evenodd" clip-rule="evenodd" d="M14.223 2.418a17.338 17.338 0 0 0-7.565 0l-.268.059a3.883 3.883 0 0 0-2.916 2.834 15.411 15.411 0 0 0 0 7.582A3.883 3.883 0 0 0 6.2 15.68l.368 2.197a.396.396 0 0 0 .654.23l2.162-1.934a17.333 17.333 0 0 0 4.839-.386l.269-.06a3.884 3.884 0 0 0 2.916-2.833 15.413 15.413 0 0 0 0-7.582 3.883 3.883 0 0 0-2.917-2.834l-.268-.06ZM7.327 5.247a.65.65 0 0 0-.426.084h-.01a3.252 3.252 0 0 0-.793.651c-.19.22-.293.441-.32.655a.9.9 0 0 0 .033.376l.014.008a9.4 9.4 0 0 0 .833 1.8c.439.799.979 1.537 1.607 2.197l.019.027.03.022.018.022.022.019c.663.63 1.403 1.172 2.203 1.615.914.498 1.469.733 1.802.83v.006a.92.92 0 0 0 .276.043c.284-.02.552-.136.763-.328.257-.227.475-.496.644-.794v-.006c.16-.3.106-.584-.124-.777a9.61 9.61 0 0 0-1.49-1.068c-.354-.193-.714-.076-.86.119l-.31.392c-.16.195-.45.168-.45.168l-.008.005c-2.162-.552-2.74-2.741-2.74-2.741s-.026-.298.174-.45l.39-.313c.186-.152.316-.512.116-.866a9.346 9.346 0 0 0-1.067-1.489.592.592 0 0 0-.348-.208l.002.001Zm3.652-.952a.396.396 0 1 0 0 .792c1.002 0 1.833.327 2.49.954a3.49 3.49 0 0 1 1.007 2.592.395.395 0 1 0 .792.033 4.244 4.244 0 0 0-.286-1.718 4.309 4.309 0 0 0-.953-1.467l-.008-.008c-.816-.78-1.85-1.178-3.042-1.178Zm-.027 1.302a.396.396 0 1 0 0 .792h.014c.722.051 1.248.292 1.616.687.377.407.573.913.558 1.538a.396.396 0 1 0 .791.018c.02-.82-.245-1.53-.77-2.095v-.001c-.535-.575-1.27-.879-2.156-.938l-.013-.002h-.04Zm-.015 1.326a.396.396 0 1 0-.04.79c.33.017.541.117.675.251.133.135.233.35.251.689a.397.397 0 0 0 .695.252.396.396 0 0 0 .095-.294c-.025-.475-.174-.895-.479-1.204-.306-.308-.723-.459-1.197-.484Z" fill="#BDBDC0"/></svg>
